X: 26079
T: McDonagh's
R: reel
M: 4/4
K: Edorian
B2Ad BEED|EB,EB ~B2EB|BAFA D3E|FDFA BAFA|
B2A=c BEED|EB,EB ~B2EB|BAGF GABc|dBAG FDFA:|
|:d2ef gfed|fB~B2 fB~B2|d2ef gfed|ceae ceae|
d2ef gfed|fB~B2 fB~B2|~a2ge fdec|dBAG FDFA:|

